svgs/regular/prescription-bottle.svg

<svg xmlns="http://www.w3.org/2000/svg" viewBox="0 0 384 512"><!--! Font Awesome Pro 6.6.0 by @fontawesome - https://fontawesome.com License - https://fontawesome.com/license (Commercial License) Copyright 2024 Fonticons, Inc. --><path d="M48 48l288 0 0 32L48 80l0-32zM40 0C17.9 0 0 17.9 0 40L0 88c0 22.1 17.9 40 40 40l304 0c22.1 0 40-17.9 40-40l0-48c0-22.1-17.9-40-40-40L40 0zM32 160l0 288c0 35.3 28.7 64 64 64l192 0c35.3 0 64-28.7 64-64l0-288-48 0 0 288c0 8.8-7.2 16-16 16L96 464c-8.8 0-16-7.2-16-16l0-32 56 0c13.3 0 24-10.7 24-24s-10.7-24-24-24l-56 0 0-48 56 0c13.3 0 24-10.7 24-24s-10.7-24-24-24l-56 0 0-48 56 0c13.3 0 24-10.7 24-24s-10.7-24-24-24l-56 0 0-16-48 0z"/></svg>

<svg xmlns="http://www.w3.org/2000/svg" viewBox="0 0 384 512"><!--! Font Awesome Pro 6.4.2 by @fontawesome - https://fontawesome.com License - https://fontawesome.com/license (Commercial License) Copyright 2023 Fonticons, Inc. --><path d="M48 48H336V80H48V48zM40 0C17.9 0 0 17.9 0 40V88c0 22.1 17.9 40 40 40H344c22.1 0 40-17.9 40-40V40c0-22.1-17.9-40-40-40H40zM32 160V448c0 35.3 28.7 64 64 64H288c35.3 0 64-28.7 64-64V160H304V448c0 8.8-7.2 16-16 16H96c-8.8 0-16-7.2-16-16V416h56c13.3 0 24-10.7 24-24s-10.7-24-24-24H80V320h56c13.3 0 24-10.7 24-24s-10.7-24-24-24H80V224h56c13.3 0 24-10.7 24-24s-10.7-24-24-24H80V160H32z"/></svg>
